X:1
T:James Gibb editions
T:My thoughts are wing'd - Dowland
T:#
%%score [ 1 2 3 4 ]
L:1/8
Q:1/4=130
M:3/2
K:Bb
V:1 treble nm="Soprano" snm="S"
V:2 treble nm="Alto" snm="A"
V:3 treble-8 nm="Tenor" snm="T"
V:4 bass nm="Bass" snm="B"
V:1
"^My thoughts are wing'd with hopes""^John Dowland\n(1563-1626)" e4 d4 c4 | =B6 c2 d4 | e4 c6 c2 | %3
w: My thoughts are|wing'd with hopes,|my hopes with|
w: And you my|thoughts that some|mis- trust do|
w: If she, for|this, with clouds|do mask her|
 =B8 z4 | g4 f4 e4 | d8 B2 e2- | e2 d4 c4 =B2 | c12 | B4 c4 B4 | G6 _A2 B4 | e4 e4 d4 | e12 | %12
w: love.|Mount, love, un-|to the Moon|* in clear- est|night|And say, as|she doth in|the hea- vens|move,|
w: car\-ry,|If for mis-|trust my mis\-|* tress do you|blame,|Say though you|al- ter, yet|you do not|va\-ry,|
w: eyes,|And make the|hea- vens dark|* with her dis-|dain,|With win- dy|sighs, dis- perse|them in the|skies,|
 c4 d4 e4 | f6 f2 e4 | d4 c6 d2 | =B8 z4 | g4 g4 f4 | e4 c2 e4 d2 | (e6 d2) c4 | =B12 | %20
w: In earth, so|wanes and wax-|eth my de-|light:|And whis- per|this but soft- ly|in * her|ears,|
w: As she doth|change, and yet|re- main the|same:|Dis- trust doth|en- ter hearts, but|not * in-|fect,|
w: Or with thy|tears dis- solve|them in- to|rain;|Thoughts, hopes, and|love re- turn to|me * no|more,|
 z2 f2 d2 B2 e2 c2 | d8 c4 | (=B6- c2) B4 | c12 :| %24
w: Hope oft doth hang the|head, and|Trust * shed|tears.|
w: And love is sweet- est|sea- son'd|with * sus-|pect.|
w: Till Cyn- thia shine as|she hath|done * be-|fore.|
V:2
 G4 G4 G4 | G6 c2 B4 | G4 G4 F4 | G12 | B6 _A2 G4 | (F2 B2) B6 G2- | G2 (F2 G4) G3 F | =E12 | %8
w: My thoughts are|wing'd with hopes,|my hopes with|love.|Mount, love, un-|to the Moon, the|* Moon in clear- est|night|
w: And you my|thoughts that some|mis- trust do|car\-ry,|If for, if|for mis- trust my|* mis- tress do you|blame,|
w: If she, for|this, with clouds|do mask her|eyes,|And make the|hea\- * vens dark|* with * her dis-|dain,|
 z2 B2 _A4 F4 | E3 F G6 (_A2 | B4) c4 (B2 _A2) | G12 | (_A3 G) F2 B4 G2 | F4 A6 G2 | G8 F4 | G12 | %16
w: And say, as|she doth in the|* hea- vens *|move,|In * earth, so wanes|and wax- eth|my de-|light:|
w: Say though you|al- ter, yet you|* do not *|va\-ry,|As * she doth change,|and yet re-|main the|same:|
w: With win- dy|sighs, dis- perse them|* in the *|skies,|Or * with thy tears|dis- solve them|in- to|rain;|
 B4 B4 B4 | (G4 A2) G3 A B2 | E2 (A3 G) (G4 F2 | G12) | B4 B4 z2 A2 | B4 F2 G4 F2 | %22
w: And whis- per|this * but soft- ly|in her * ears, *||Hope oft doth|hang the head, the|
w: Dis- trust doth|en\- * ter hearts, but|not in\- * fect, *||And love is|sweet- est sea- son'd,|
w: Thoughts, hopes, and|love * re- turn to|me no * more, *||Till Cyn- thia|shine as she, as|
 G3 G (D2 E2) D4 | C12 :| %24
w: head, and Trust * shed|tears.|
w: sea- son'd with * sus-|pect.|
w: she hath done * be-|fore.|
V:3
 C4 D4 E4 | D4 G4 G4 | E2 C4 (E2 D2 C2) | D12 | E4 B8 | z2 G2 F4 E4 | B2 B,4 E2 D4 | C12 | %8
w: My thoughts are|wing'd with hopes,|my hopes with * *|love.|Mount, love,|un- to the|Moon in clear- est|night|
w: And you my|thoughts that some|mis- trust do * *|car\-ry,|If for|mis- trust my|mis- tress do you|blame,|
w: If she, for|this, with clouds|do mask her * *|eyes,|And make|the hea- vens|dark with her dis-|dain,|
 D2 G2 F2 E4 D2 | E12 | G4 F6 F2 | E12 | E2 F4 G4 E2 | (_A3 B) c6 C2 | D4 E4 D2 C2 | D12 | %16
w: And say, as she doth|in|the hea- vens|move,|In earth, so wanes|so * wanes and|wax- eth my de-|light:|
w: Say though you al- ter,|yet|you do not|vary,|As she doth change,|and * yet, and|yet re- main the|same:|
w: With win- dy sighs, dis-|perse|them in the|skies,|Or with thy tears|dis\- * solve, dis-|solve them in- to|rain;|
 E4 E4 D4 | C2 c4 c2 (B3 A) | G2 C4 (D2 E2) C2 | D8 C4 | (D3 E) (F2 G2) F4 | z2 F2 D2 B,2 E2 C2 | %22
w: And whis- per|this, and whis- per this|but soft- ly in her|ears, soft-|ly in her * ears,|Hope oft doth hang the|
w: Dis- trust, dis-|trust doth en- ter *|hearts, but not * in-|fect, but|not * in\- * fect,|And love is sweet- est|
w: Thoughts, hopes, and|love, thoughts, hopes, and love|re- turn to me no|more, to|me * no * more,|Till Cyn- thia shine as|
 D6 G2 G3 F | =E12 :| %24
w: head, and Trust shed|tears.|
w: sea- son'd with sus-|pect.|
w: she hath done be-|fore.|
V:4
 C,4 =B,,4 C,4 | G,6 _A,2 B,4 | C4 _A,6 A,2 | G,12 | E,4 D,4 E,4 | B,6 _A,2 G,4 | %6
w: My thoughts are|wing'd with hopes,|my hopes with|love.|Mount, love, un-|to the Moon|
w: And you my|thoughts that some|mis- trust do|car\-ry,|If for mis-|trust my mis-|
w: If she, for|this, with clouds|do mask her|eyes,|And make the|hea- vens dark|
 D,4 (E,2 C,2) G,4 | C,12 | G,4 _A,4 B,4 | E,6 F,2 (G,4- | G,2 F,)E, (A,2 F,2) B,4 | E,12 | %12
w: in clear\- * est|night|And say, as|she doth in|* * the hea\- * vens|move,|
w: tress do * you|blame,|Say though you|al- ter, yet|* * you do * not|va\-ry,|
w: with her * dis-|dain,|With win- dy|sighs, dis- perse|* * them in * the|skies,|
 _A,4 B,4 C4 | F,6 F,2 C4 | B,4 A,6 A,2 | G,12 | E,4 E,4 B,,4 | C,4 F,2 C,2 G,4 | C6 (B,2 A,4) | %19
w: In earth, so|wanes and wax-|eth my de-|light:|And whis- per|this but soft- ly|in her *|
w: As she doth|change, and yet|re- main the|same:|Dis- trust doth|en- ter hearts, but|not in\- *|
w: Or with thy|tears dis- solve|them in- to|rain;|Thoughts, hopes, and|love re- turn to|me no *|
 G,6 F,2 E,4 | D,4 B,,2 E,2 C,2 F,2 | B,,6 G,2 E,2 A,2 | G,8 G,4 | C,12 :| %24
w: ears, her ears,|Hope oft doth hang the|head, and Trust, and|Trust shed|tears.|
w: fect, in- fect,|And love is sweet- est|sea- son'd, sea- son'd|with sus-|pect.|
w: more, no more,|Till Cyn- thia shine as|she hath done, hath|done be-|fore.|

